icons/linear-new-symbol-more-circle-dot.svg

<svg xmlns="http://www.w3.org/2000/svg" width="32px" height="32px" viewBox="0 0 32 32" version="1.1">
    <title>linear-new-symbol-more-circle-dot</title>
    <g id="linear-new-symbol-more-circle-dot" stroke-width="1" fill-rule="evenodd">
        <path d="M16,2 C23.7319865,2 30,8.2680135 30,16 C30,23.7319865 23.7319865,30 16,30 C8.2680135,30 2,23.7319865 2,16 C2,8.2680135 8.2680135,2 16,2 Z M16,4 C9.372583,4 4,9.372583 4,16 C4,22.627417 9.372583,28 16,28 C22.627417,28 28,22.627417 28,16 C28,9.372583 22.627417,4 16,4 Z M10.5,14.5 C11.3284271,14.5 12,15.1715729 12,16 C12,16.8284271 11.3284271,17.5 10.5,17.5 C9.67157288,17.5 9,16.8284271 9,16 C9,15.1715729 9.67157288,14.5 10.5,14.5 Z M16,14.5 C16.8284271,14.5 17.5,15.1715729 17.5,16 C17.5,16.8284271 16.8284271,17.5 16,17.5 C15.1715729,17.5 14.5,16.8284271 14.5,16 C14.5,15.1715729 15.1715729,14.5 16,14.5 Z M21.5,14.5 C22.3284271,14.5 23,15.1715729 23,16 C23,16.8284271 22.3284271,17.5 21.5,17.5 C20.6715729,17.5 20,16.8284271 20,16 C20,15.1715729 20.6715729,14.5 21.5,14.5 Z" id="&#24418;&#29366;" fill-rule="nonzero" />
    </g>
</svg>

<svg xmlns="http://www.w3.org/2000/svg" viewBox="0 0 32 32"><path fill="currentColor" d="M16 2c7.732 0 14 6.268 14 14s-6.268 14-14 14S2 23.732 2 16 8.268 2 16 2m0 2C9.373 4 4 9.373 4 16s5.373 12 12 12 12-5.373 12-12S22.627 4 16 4m-5.5 10.5a1.5 1.5 0 1 1 0 3 1.5 1.5 0 0 1 0-3m5.5 0a1.5 1.5 0 1 1 0 3 1.5 1.5 0 0 1 0-3m5.5 0a1.5 1.5 0 1 1 0 3 1.5 1.5 0 0 1 0-3"/></svg>
